public/images/case-studies/uber-logo.svg

<svg width="116" height="64" viewBox="0 0 116 64" fill="none" xmlns="http://www.w3.org/2000/svg">
<g clip-path="url(#clip0_1_4170)">
<rect width="116" height="64" fill="white"/>
<path d="M15.9106 47.0173C21.3614 47.0173 25.576 42.8047 25.576 36.5709V12.3093H31.4757V51.6224H25.6323V47.9717C22.9912 50.7233 19.3389 52.2958 15.2359 52.2958C6.80572 52.2958 0.342773 46.1744 0.342773 36.9118V12.3158H6.24248V36.5709C6.24248 42.9171 10.4009 47.0173 15.9088 47.0173" fill="black"/>
<path d="M35.8609 12.3103H41.5366V26.6313C42.8603 25.2763 44.4425 24.2004 46.1896 23.4671C47.9367 22.7339 49.8132 22.3582 51.7081 22.3624C60.1382 22.3624 66.7689 29.0457 66.7689 37.3577C66.7689 45.6135 60.1382 52.2958 51.7081 52.2958C49.8041 52.301 47.9182 51.9261 46.1612 51.1932C44.4041 50.4604 42.8111 49.3842 41.4758 48.0279V51.6206H35.8526L35.8609 12.3103ZM51.3154 47.2983C56.7108 47.2983 61.1504 42.8609 61.1504 37.3577C61.1504 31.7973 56.7108 27.417 51.3154 27.417C45.8637 27.417 41.4241 31.7973 41.4241 37.3577C41.4241 42.8609 45.8074 47.2983 51.3154 47.2983Z" fill="black"/>
<path d="M83.7426 22.4186C92.0031 22.4186 98.0733 28.7647 98.0733 37.3015V39.1549H74.7538C75.541 43.8162 79.4183 47.2983 84.2486 47.2983C87.5672 47.2983 90.3751 45.9497 92.5101 43.0857L96.6131 46.1182C93.7463 49.9375 89.4754 52.2396 84.2486 52.2396C75.6507 52.2396 69.0191 45.8373 69.0191 37.3015C69.0191 29.2143 75.3696 22.4186 83.7435 22.4186M74.8635 34.6622H92.3414C91.3864 30.281 87.8456 27.3608 83.631 27.3608C79.4164 27.3608 75.8757 30.281 74.8635 34.6622Z" fill="black"/>
<path d="M113.303 28.0352C109.593 28.0352 106.896 30.8992 106.896 35.3357V51.6225H101.219V22.9806H106.843V26.5216C108.248 24.2186 110.552 22.7585 113.699 22.7585H115.665V28.0379L113.303 28.0352Z" fill="black"/>
</g>
<defs>
<clipPath id="clip0_1_4170">
<rect width="116" height="64" fill="white"/>
</clipPath>
</defs>
</svg>

<svg xmlns="http://www.w3.org/2000/svg" width="116" height="64" fill="none" viewBox="0 0 116 64">
    <g clip-path="url(#a)">
        <path fill="#000"
              d="M15.91 47.017c5.451 0 9.666-4.212 9.666-10.446V12.309h5.9v39.313h-5.844v-3.65c-2.64 2.751-6.293 4.324-10.396 4.324-8.43 0-14.893-6.122-14.893-15.384V12.316h5.9V36.57c0 6.346 4.158 10.446 9.666 10.446M35.86 12.31h5.677v14.321a14.17 14.17 0 0 1 10.171-4.269c8.43 0 15.06 6.684 15.06 14.996 0 8.256-6.63 14.938-15.06 14.938a14.3 14.3 0 0 1-10.232-4.268v3.593h-5.623zm15.455 34.988c5.396 0 9.835-4.437 9.835-9.94 0-5.56-4.44-9.941-9.835-9.941-5.451 0-9.89 4.38-9.89 9.94 0 5.504 4.382 9.941 9.89 9.941M83.743 22.419c8.26 0 14.33 6.346 14.33 14.882v1.854h-23.32c.788 4.661 4.665 8.143 9.496 8.143 3.318 0 6.126-1.348 8.261-4.212l4.103 3.032c-2.867 3.82-7.138 6.122-12.364 6.122-8.598 0-15.23-6.403-15.23-14.939 0-8.087 6.35-14.882 14.724-14.882m-8.88 12.243h17.478c-.955-4.381-4.495-7.301-8.71-7.301s-7.755 2.92-8.767 7.301M113.303 28.035c-3.71 0-6.407 2.864-6.407 7.3v16.288h-5.677V22.98h5.624v3.54c1.405-2.302 3.709-3.762 6.856-3.762h1.966v5.279z"/>
    </g>
    <defs>
        <clipPath id="a">
            <path fill="#fff" d="M0 0h116v64H0z"/>
        </clipPath>
    </defs>
</svg>
